X:412
T: HEITER WAR DER FRUEHLING
N: B0485
O: Europa, Mitteleuropa, Deutschland, Hildburghausen
R: Liebes - Lied, Leid, Klage
M: 4/4
L: 1/8
K: Eb
BA | G3EEEcB | BAA2z2
AG | F3GAcBA | G4z2
BA | G3EEEcB | BAA2z2
AG | F3GAcBA | G4z2
BB | e3BcBAG | c2c2z2
ec | B3GcBAG | F4z2
BB | e3BcBAG | c2c2z2
ec | B3GcBAF | E4z2

